static/img/svg/plus-circle.svg

<svg xmlns="http://www.w3.org/2000/svg" width="24" height="24" viewBox="0 0 24 24"><path d="M13 8h-2v3H8v2h3v3h2v-3h3v-2h-3z"/><path d="M12 2C6.486 2 2 6.486 2 12s4.486 10 10 10 10-4.486 10-10S17.514 2 12 2zm0 18c-4.411 0-8-3.589-8-8s3.589-8 8-8 8 3.589 8 8-3.589 8-8 8z"/></svg>

<svg xmlns="http://www.w3.org/2000/svg" width="24" height="24" viewBox="0 0 24 24"><path d="M13 8L11 8 11 11 8 11 8 13 11 13 11 16 13 16 13 13 16 13 16 11 13 11z"/><path d="M12,2C6.486,2,2,6.486,2,12s4.486,10,10,10c5.514,0,10-4.486,10-10S17.514,2,12,2z M12,20c-4.411,0-8-3.589-8-8 s3.589-8,8-8s8,3.589,8,8S16.411,20,12,20z"/></svg>
